apps/frontend/dist/_astro/bg.2ab9f47c.svg

<svg width="1536" height="1024" viewBox="0 0 1536 1024" fill="none" xmlns="http://www.w3.org/2000/svg">
<g filter="url(#filter0_f_1_6)">
<path fill-rule="evenodd" clip-rule="evenodd" d="M1343.46 -159.578C1397.62 -156.722 1450.53 -185.752 1502.91 -171.724C1562.04 -155.892 1621.05 -126.248 1655.88 -75.9173C1691.45 -24.5065 1714.35 45.3283 1694.03 104.456C1673.53 164.115 1598.98 182.521 1552.45 225.117C1521.13 253.79 1497.58 287.576 1464.69 314.425C1426.35 345.721 1392.24 404.086 1343.46 395.699C1291.61 386.782 1288.98 304.011 1244.13 276.5C1201.21 250.17 1136.33 279.323 1098.87 245.672C1061.38 211.998 1061.27 154.098 1052.59 104.456C1042.49 46.6275 1021.56 -14.195 1043.99 -68.4427C1066.98 -124.017 1116.46 -171.563 1173.99 -189.073C1229.8 -206.055 1285.21 -162.65 1343.46 -159.578Z" fill="#0891B2" fill-opacity="0.1"/>
</g>
<g filter="url(#filter1_f_1_6)">
<path fill-rule="evenodd" clip-rule="evenodd" d="M1121.23 733.486C1170.02 745.022 1184.9 811.977 1230.26 833.327C1282.14 857.744 1350.51 829.161 1396.7 863.14C1446.65 899.89 1484.76 960.208 1486.96 1022.18C1489.18 1084.36 1448.72 1140.64 1408.27 1187.91C1371.69 1230.65 1323.51 1265.25 1268.58 1277.4C1219.04 1288.37 1171.79 1247.13 1121.23 1251.41C1063.55 1256.29 1014.71 1318.33 958.732 1303.63C904.301 1289.34 864.951 1233.51 848.304 1179.76C832.326 1128.16 873.92 1076.15 871.576 1022.18C869.077 964.646 811.648 909.468 834.264 856.504C856.327 804.834 926.076 795.748 977.715 773.611C1024.16 753.701 1072.05 721.858 1121.23 733.486Z" fill="#D97706" fill-opacity="0.4"/>
</g>
<g filter="url(#filter2_f_1_6)">
<path fill-rule="evenodd" clip-rule="evenodd" d="M182.321 32.0015C215.84 31.9352 255.768 33.9358 277.202 59.689C299.507 86.4901 267.958 134.829 290.23 161.658C320.142 197.69 391.883 182.401 413.535 223.918C432.32 259.937 413.242 312.502 383.121 339.773C352.134 367.828 302.13 350.603 261.727 361.361C233.686 368.828 211.075 389.328 182.321 393.24C150.96 397.507 119.727 393.755 89.3683 384.811C52.784 374.033 9.73745 367.361 -11.9489 336.006C-33.6604 304.614 -29.4305 261.331 -21.912 223.918C-15.0935 189.988 9.17969 163.896 28.4208 135.122C46.444 108.169 60.7152 78.1166 87.6578 60.0639C115.469 41.4291 148.837 32.0677 182.321 32.0015Z" fill="#C2410C" fill-opacity="0.35"/>
</g>
<defs>
<filter id="filter0_f_1_6" x="784" y="-443" width="1167.65" height="1089.51" filterUnits="userSpaceOnUse" color-interpolation-filters="sRGB">
<feFlood flood-opacity="0" result="BackgroundImageFix"/>
<feBlend mode="normal" in="SourceGraphic" in2="BackgroundImageFix" result="shape"/>
<feGaussianBlur stdDeviation="125" result="effect1_foregroundBlur_1_6"/>
</filter>
<filter id="filter1_f_1_6" x="329" y="231" width="1658.05" height="1574.88" filterUnits="userSpaceOnUse" color-interpolation-filters="sRGB">
<feFlood flood-opacity="0" result="BackgroundImageFix"/>
<feBlend mode="normal" in="SourceGraphic" in2="BackgroundImageFix" result="shape"/>
<feGaussianBlur stdDeviation="250" result="effect1_foregroundBlur_1_6"/>
</filter>
<filter id="filter2_f_1_6" x="-378" y="-318" width="1149" height="1063" filterUnits="userSpaceOnUse" color-interpolation-filters="sRGB">
<feFlood flood-opacity="0" result="BackgroundImageFix"/>
<feBlend mode="normal" in="SourceGraphic" in2="BackgroundImageFix" result="shape"/>
<feGaussianBlur stdDeviation="175" result="effect1_foregroundBlur_1_6"/>
</filter>
</defs>
</svg>

<svg xmlns="http://www.w3.org/2000/svg" width="1536" height="1024" fill="none"><g filter="url(#a)"><path fill="#0891B2" fill-opacity=".1" fill-rule="evenodd" d="M1343.46-159.578c54.16 2.856 107.07-26.174 159.45-12.146 59.13 15.832 118.14 45.476 152.97 95.807 35.57 51.41 58.47 121.245 38.15 180.373-20.5 59.659-95.05 78.065-141.58 120.661-31.32 28.673-54.87 62.459-87.76 89.308-38.34 31.296-72.45 89.661-121.23 81.274-51.85-8.917-54.48-91.688-99.33-119.199-42.92-26.33-107.8 2.823-145.26-30.828-37.49-33.674-37.6-91.574-46.28-141.216-10.1-57.829-31.03-118.651-8.6-172.899 22.99-55.574 72.47-103.12 130-120.63 55.81-16.982 111.22 26.423 169.47 29.495Z" clip-rule="evenodd"/></g><g filter="url(#b)"><path fill="#D97706" fill-opacity=".4" fill-rule="evenodd" d="M1121.23 733.486c48.79 11.536 63.67 78.491 109.03 99.841 51.88 24.417 120.25-4.166 166.44 29.813 49.95 36.75 88.06 97.068 90.26 159.04 2.22 62.18-38.24 118.46-78.69 165.73-36.58 42.74-84.76 77.34-139.69 89.49-49.54 10.97-96.79-30.27-147.35-25.99-57.68 4.88-106.52 66.92-162.498 52.22-54.431-14.29-93.781-70.12-110.428-123.87-15.978-51.6 25.616-103.61 23.272-157.58-2.499-57.534-59.928-112.712-37.312-165.676 22.063-51.67 91.812-60.756 143.451-82.893 46.445-19.91 94.335-51.753 143.515-40.125Z" clip-rule="evenodd"/></g><g filter="url(#c)"><path fill="#C2410C" fill-opacity=".35" fill-rule="evenodd" d="M182.321 32.002c33.519-.067 73.447 1.934 94.881 27.687 22.305 26.801-9.244 75.14 13.028 101.969 29.912 36.032 101.653 20.743 123.305 62.26 18.785 36.019-.293 88.584-30.414 115.855-30.987 28.055-80.991 10.83-121.394 21.588-28.041 7.467-50.652 27.967-79.406 31.879-31.361 4.267-62.594.515-92.953-8.429-36.584-10.778-79.63-17.45-101.317-48.805-21.711-31.392-17.481-74.675-9.963-112.088 6.818-33.93 31.092-60.022 50.333-88.796 18.023-26.953 32.294-57.005 59.237-75.058C115.469 41.429 148.837 32.068 182.32 32Z" clip-rule="evenodd"/></g><defs><filter id="a" width="1167.65" height="1089.51" x="784" y="-443" color-interpolation-filters="sRGB" filterUnits="userSpaceOnUse"><feFlood flood-opacity="0" result="BackgroundImageFix"/><feBlend in="SourceGraphic" in2="BackgroundImageFix" result="shape"/><feGaussianBlur result="effect1_foregroundBlur_1_6" stdDeviation="125"/></filter><filter id="b" width="1658.05" height="1574.88" x="329" y="231" color-interpolation-filters="sRGB" filterUnits="userSpaceOnUse"><feFlood flood-opacity="0" result="BackgroundImageFix"/><feBlend in="SourceGraphic" in2="BackgroundImageFix" result="shape"/><feGaussianBlur result="effect1_foregroundBlur_1_6" stdDeviation="250"/></filter><filter id="c" width="1149" height="1063" x="-378" y="-318" color-interpolation-filters="sRGB" filterUnits="userSpaceOnUse"><feFlood flood-opacity="0" result="BackgroundImageFix"/><feBlend in="SourceGraphic" in2="BackgroundImageFix" result="shape"/><feGaussianBlur result="effect1_foregroundBlur_1_6" stdDeviation="175"/></filter></defs></svg>
